!!!COM: Fe/licien David
!!!CNT: Francais
!!!TXO: Francais
!!!OTL: Sultan Mahmoud
!!!LYR: Th. Gautier
!!!ENC: Jacob Pegg
!!!YOR: Romantic French Song 1830-1870, David Tunley, ed., New York: Garland Publishing, Inc., 1995
!!!ODT: 1847/
!!NB: Vocal melody and text only encoded.
!!NB: Only first strophe encoded.
**kern	**silbe
*clef G2	*
*k[]	*
*M2/4	*
=	=
4.r	.
{8ee	{Dans
=1	=1
8ff	mon
8gg	ha-
(16ggq	|
16bbq	|
8aa)	-rem
8gg	se
=2	=2
8ff	grou-
8ee}	-pe,}
8r	.
{8cc	{Comme
=3	=3
4dd	un
4ee	bou-
=4	=4
4cc	-quet,
8r	.
8ee	De/-
=5	=5
8ff	-bor-
8gg	-dant
8aa	d'u-
8gg	-ne
=6	=6
(8bb	cou-
8aa)	|
8gg	-pe
8ff	Sur
=7	=7
4gg	un
4g	ban-
=8	=8
4cc}	-quet,}
4r	.
=9	=9
2r	.
=10	=10
4r	.
8r	.
{8cc	{Tout
=11	=11
8cc	ce
8cc	que
8ee	cherche
8ff	ou
=12	=12
8aa	re^-
8gg	-ve
8.cc	D'o-
16cc	-pi-
=13	=13
4dd#	-um
4ee	u-
=14	=14
4cc}	-se/}
8r	.
{8cc	{En
=15	=15
8cc	son
8cc	en-
8ee	-nui
8ff	sans
=16	=16
!!inexplicable use of hyphen in score - possible speck - ignored.
8aa	tre\-
8gg}	-ve}
8r	.
{8cc	{Un
=17	=17
4cc	coeur
(8.b	bla-
16a)	|
=18	=18
4g}	-se/}
8r	.
{8cc	{Que
=19	=19
8cc	ne
8cc	suis~
8dd	~je un
8dd	es-
=20	=20
8ff	-cla-
8ee}	-ve,}
8r	.
{8ee	{Un
=21	=21
4aa	pa^tre
(4ff	obs-
16ggq	|
16ffq)	|
=22	=22
4ee}	-cur,}
8r	.
{8ee	{Sa-
=23	=23
8aa	-vou-
8gg	-rant
8bb	sans
8aa	en-
=24	=24
(8gg	-tra-
8ff)	|
8ee#	-ve
8ff	Un
=25	=25
4cc	a-
(8.cc	-mour
16b)	|
=26	=26
4.a;}	pur,}
{8ff	{un
=27	=27
4ff	a-
4ee#T	-mour
16dd#q	|
16ee#q	|
=28	=28
2ff}	pur!}
*-	*-
